_includes/icons/ios-edit-journal.svg

<svg fill="#666" height="50" viewBox="0 0 50 50" width="50" xmlns="http://www.w3.org/2000/svg"><path d="m2.8125 0c-1.535156 0-2.8125 1.277344-2.8125 2.8125v5c-.0078125.0625-.0078125.125 0 .1875v32c0 .550781.449219 1 1 1h23c.359375.003906.695313-.183594.878906-.496094.179688-.3125.179688-.695312 0-1.007812-.183593-.3125-.519531-.5-.878906-.496094h-22v-30h40v13c-.003906.359375.183594.695313.496094.878906.3125.179688.695312.179688 1.007812 0 .3125-.183593.5-.519531.496094-.878906v-14c.007813-.0625.007813-.125 0-.1875v-5c0-1.535156-1.277344-2.8125-2.8125-2.8125zm0 2h38.375c.464844 0 .8125.347656.8125.8125v4.1875h-40v-4.1875c0-.464844.347656-.8125.8125-.8125zm4.1875 13v2h4v-2zm7 0v2h23v-2zm-7 5v2h4v-2zm7 0v2h23v-2zm31.90625 4.90625c-1.050781 0-2.105469.386719-2.90625 1.1875l-.6875.71875.03125.03125-15.4375 15.4375c-.128906.117188-.226562.269531-.28125.4375l-1.6875 6c-.101562.347656-.011719.722656.242188.984375.253906.257813.625.359375.976562.265625l6-1.59375c.167969-.054687.320313-.152344.4375-.28125l15.8125-15.6875c.121094-.101562.21875-.230469.28125-.375 0-.011719 0-.019531 0-.03125l.125-.09375c1.601563-1.601562 1.601563-4.210937 0-5.8125-.800781-.800781-1.855469-1.1875-2.90625-1.1875zm-38.90625.09375v2h4v-2zm7 0v2h23v-2zm29.75 3.25 3 3-15.34375 15.25-2.9375-2.84375.03125-.125zm-36.75 1.75v2h4v-2zm7 0v2h19v-2z"/></svg>

<svg xmlns="http://www.w3.org/2000/svg" viewBox="0 0 50 50" width="50" height="50" fill="#666"><path d="M 2.8125 0 C 1.277344 0 0 1.277344 0 2.8125 L 0 7.8125 C -0.0078125 7.875 -0.0078125 7.9375 0 8 L 0 40 C 0 40.550781 0.449219 41 1 41 L 24 41 C 24.359375 41.003906 24.695313 40.816406 24.878906 40.503906 C 25.058594 40.191406 25.058594 39.808594 24.878906 39.496094 C 24.695313 39.183594 24.359375 38.996094 24 39 L 2 39 L 2 9 L 42 9 L 42 22 C 41.996094 22.359375 42.183594 22.695313 42.496094 22.878906 C 42.808594 23.058594 43.191406 23.058594 43.503906 22.878906 C 43.816406 22.695313 44.003906 22.359375 44 22 L 44 8 C 44.007813 7.9375 44.007813 7.875 44 7.8125 L 44 2.8125 C 44 1.277344 42.722656 0 41.1875 0 Z M 2.8125 2 L 41.1875 2 C 41.652344 2 42 2.347656 42 2.8125 L 42 7 L 2 7 L 2 2.8125 C 2 2.347656 2.347656 2 2.8125 2 Z M 7 15 L 7 17 L 11 17 L 11 15 Z M 14 15 L 14 17 L 37 17 L 37 15 Z M 7 20 L 7 22 L 11 22 L 11 20 Z M 14 20 L 14 22 L 37 22 L 37 20 Z M 45.90625 24.90625 C 44.855469 24.90625 43.800781 25.292969 43 26.09375 L 42.3125 26.8125 L 42.34375 26.84375 L 26.90625 42.28125 C 26.777344 42.398438 26.679688 42.550781 26.625 42.71875 L 24.9375 48.71875 C 24.835938 49.066406 24.925781 49.441406 25.179688 49.703125 C 25.433594 49.960938 25.804688 50.0625 26.15625 49.96875 L 32.15625 48.375 C 32.324219 48.320313 32.476563 48.222656 32.59375 48.09375 L 48.40625 32.40625 C 48.527344 32.304688 48.625 32.175781 48.6875 32.03125 C 48.6875 32.019531 48.6875 32.011719 48.6875 32 L 48.8125 31.90625 C 50.414063 30.304688 50.414063 27.695313 48.8125 26.09375 C 48.011719 25.292969 46.957031 24.90625 45.90625 24.90625 Z M 7 25 L 7 27 L 11 27 L 11 25 Z M 14 25 L 14 27 L 37 27 L 37 25 Z M 43.75 28.25 L 46.75 31.25 L 31.40625 46.5 L 28.46875 43.65625 L 28.5 43.53125 Z M 7 30 L 7 32 L 11 32 L 11 30 Z M 14 30 L 14 32 L 33 32 L 33 30 Z"/></svg>
